web/packages/design/src/ResourceIcon/assets/box.svg

<svg width="72" height="72" viewBox="0 0 72 72" fill="none" xmlns="http://www.w3.org/2000/svg">
<path d="M71.3652 51.084C72.264 52.3423 72.0842 53.9601 71.0057 54.859C69.7473 55.7578 67.9497 55.578 67.0509 54.4994L60.7593 46.4102L54.6474 54.3197C53.7486 55.578 51.951 55.578 50.6927 54.6792C49.4343 53.7804 49.2546 52.1625 50.1534 50.9042L57.3438 41.5566L50.1534 32.209C49.2546 30.9507 49.6141 29.1531 50.6927 28.2543C51.951 27.3555 53.7486 27.715 54.6474 28.7936L60.7593 36.8828L67.0509 29.1531C67.9497 27.8948 69.5676 27.715 71.0057 28.6138C72.264 29.5126 72.264 31.3102 71.3652 32.5686L64.3545 41.7364L71.3652 51.084ZM38.6487 50.0054C33.9749 50.0054 30.1999 46.4102 30.1999 41.7364C30.1999 37.2424 33.9749 33.4674 38.6487 33.4674C43.3224 33.4674 47.0974 37.2424 47.0974 41.7364C46.9177 46.4102 43.1427 50.0054 38.6487 50.0054ZM13.8416 50.0054C9.16782 50.0054 5.39284 46.4102 5.39284 41.7364C5.39284 37.2424 9.16782 33.4674 13.8416 33.4674C18.5154 33.4674 22.2904 37.2424 22.2904 41.7364C22.2904 46.4102 18.5154 50.0054 13.8416 50.0054ZM38.6487 28.0745C33.4356 28.0745 28.7618 30.9507 26.4249 35.265C24.088 30.9507 19.4142 28.0745 14.0214 28.0745C10.7857 28.0745 7.90949 29.1531 5.5726 30.771V19.2662C5.5726 17.8282 4.31427 16.5698 2.87618 16.5698C1.25833 16.5698 0 17.8282 0 19.2662V41.9162C0.179761 49.4661 6.29164 55.3982 13.8416 55.3982C19.2344 55.3982 23.9082 52.3423 26.2451 48.028C28.582 52.3423 33.2558 55.3982 38.4689 55.3982C46.1986 55.3982 52.4903 49.2864 52.4903 41.5566C52.67 34.1864 46.3784 28.0745 38.6487 28.0745Z" fill="#0061D5"/>
</svg>

<svg xmlns="http://www.w3.org/2000/svg" width="72" height="72" fill="none" viewBox="0 0 72 72"><path fill="#0061d5" d="M71.365 51.084c.899 1.258.72 2.876-.36 3.775-1.258.899-3.055.719-3.954-.36l-6.292-8.089-6.112 7.91c-.898 1.258-2.696 1.258-3.954.36-1.259-.9-1.438-2.517-.54-3.776l7.19-9.347-7.19-9.348c-.898-1.258-.539-3.056.54-3.955 1.258-.899 3.056-.539 3.954.54l6.112 8.089 6.292-7.73c.899-1.258 2.517-1.438 3.955-.54 1.258.9 1.258 2.697.36 3.956l-7.011 9.167zM38.65 50.005c-4.674 0-8.45-3.595-8.45-8.269 0-4.494 3.776-8.269 8.45-8.269s8.448 3.775 8.448 8.27c-.18 4.673-3.954 8.268-8.448 8.268m-24.807 0c-4.674 0-8.45-3.595-8.45-8.269 0-4.494 3.776-8.269 8.45-8.269s8.448 3.775 8.448 8.27c0 4.673-3.775 8.268-8.448 8.268m24.807-21.93c-5.213 0-9.887 2.876-12.224 7.19-2.337-4.314-7.01-7.19-12.404-7.19-3.235 0-6.112 1.078-8.448 2.696V19.266c0-1.438-1.259-2.696-2.697-2.696C1.258 16.57 0 17.828 0 19.266v22.65c.18 7.55 6.292 13.482 13.842 13.482 5.392 0 10.066-3.056 12.403-7.37 2.337 4.314 7.01 7.37 12.224 7.37 7.73 0 14.021-6.112 14.021-13.841.18-7.37-6.112-13.483-13.841-13.483"/></svg>
